X: 2167
T:Sirba
O:Rumania
M:2/4
Q:1/4=76
P:ABCBABCBCBAB
K:Am
(3^gae (3gae (3gae (3gae|\
(3^gae (3gae (3=gfe ~d>c|\
(3=g^ge (3=g^ge (3=g^ge (3=g^ge\
|1 (3=gfe ~d>B (3cdB A2 :|2 \
(3=gfe ~d>B (3cdB A>g |:\
(3gfe ~d>c (3def (3gag|(3gfe ~d>e (3cde (3cde|\
(3gfe ~d>c (3deB (3deB\
|1 (3^GAB ~c>B (3cdB A>g:|2 \
(3^GAB ~c>B (3cdB A2 |:
(3^gaa a>a a>a (3bc'c'|~b>a (3e^f^g ~a2e'2|\
(3^gaa a>a a>a (3bc'c'|~b>a (3e^f^g ~a2A2:|
